X: 1
T:Girls of Castlebar, The
T:Maids of Caslebar, The
R:reel
D:Frankie Gavin: Frankie Goes to Town
D:Shaskeen: 25th Silver Jubilee Collection
Z:id:hn-reel-597
M:C|
K:D
dD~D2 EDCE|D2FA BAFA|dDcD BDAF|DEFD EDB,D|
FD~D2 EDB,E|D2FA BAFA|dgfe dBAG|F2EF D4:|
|:a2ga fd~d2|fdad fddf|gebe geef|gebe gece|
fdad bdad|fgec dBcA|Bcde fdec|dBAG FDD2:|
"variations"
|:dD~D2 EDB,A,|D2FA BAFA|d2cd BdAF|DEFD EDB,D|
~F3D EDEF|D2FA BAFA|dfec dBAF|GFEG FDD2:|
|:a2^ga fdde|fdad fddf|gebe geef|gebe geeg|
fd~d2 ~g3e|fdec dcBA|Bcde f2ef|dBAG FDD2:|
